SVG_Azure_All/Tags.svg

<?xml version="1.0" encoding="UTF-8" standalone="no"?>
<!-- Generated by Microsoft Visio, SVG Export Tags.svg Page-1 -->

<svg
   xmlns:dc="http://purl.org/dc/elements/1.1/"
   xmlns:cc="http://creativecommons.org/ns#"
   xmlns:rdf="http://www.w3.org/1999/02/22-rdf-syntax-ns#"
   xmlns:svg="http://www.w3.org/2000/svg"
   xmlns="http://www.w3.org/2000/svg"
   xmlns:sodipodi="http://sodipodi.sourceforge.net/DTD/sodipodi-0.dtd"
   xmlns:inkscape="http://www.inkscape.org/namespaces/inkscape"
   width="0.70881152in"
   height="0.78745455in"
   viewBox="0 0 51.034447 56.696837"
   xml:space="preserve"
   class="st6"
   version="1.1"
   id="svg45"
   sodipodi:docname="Tags.svg"
   style="font-size:12px;overflow:visible;color-interpolation-filters:sRGB;fill:none;fill-rule:evenodd;stroke-linecap:square;stroke-miterlimit:3"
   inkscape:version="0.92.5 (2060ec1f9f, 2020-04-08)"><metadata
   id="metadata49"><rdf:RDF><cc:Work
       rdf:about=""><dc:format>image/svg+xml</dc:format><dc:type
         rdf:resource="http://purl.org/dc/dcmitype/StillImage" /></cc:Work></rdf:RDF></metadata><sodipodi:namedview
   pagecolor="#ffffff"
   bordercolor="#666666"
   borderopacity="1"
   objecttolerance="10"
   gridtolerance="10"
   guidetolerance="10"
   inkscape:pageopacity="0"
   inkscape:pageshadow="2"
   inkscape:window-width="640"
   inkscape:window-height="480"
   id="namedview47"
   showgrid="false"
   inkscape:zoom="1.4192955"
   inkscape:cx="34.030569"
   inkscape:cy="37.78567"
   inkscape:window-x="0"
   inkscape:window-y="0"
   inkscape:window-maximized="0"
   inkscape:current-layer="svg45" />
	<style
   type="text/css"
   id="style2">
	<![CDATA[
		.st1 {fill:#773adc;stroke:none;stroke-linecap:butt;stroke-width:34}
		.st2 {fill:#341a6e;stroke:none;stroke-linecap:butt;stroke-width:34}
		.st3 {fill:url(#grad0-10);stroke:none;stroke-linecap:butt;stroke-width:34}
		.st4 {fill:#552f99;stroke:none;stroke-linecap:butt;stroke-width:34}
		.st5 {fill:#ffffff;stroke:none;stroke-linecap:butt;stroke-width:34}
		.st6 {fill:none;fill-rule:evenodd;font-size:12px;overflow:visible;stroke-linecap:square;stroke-miterlimit:3}
	]]>
	</style>

	<defs
   id="Patterns_And_Gradients">
		<linearGradient
   id="grad0-10"
   x1="0.0037279644"
   y1="79.03957"
   x2="45.565359"
   y2="79.03957"
   gradientTransform="scale(0.99912752,1.0008732)"
   gradientUnits="userSpaceOnUse">
			<stop
   offset="0"
   stop-color="#c69aeb"
   stop-opacity="1"
   id="stop4" />
			<stop
   offset="1"
   stop-color="#6f4bb2"
   stop-opacity="1"
   id="stop6" />
		</linearGradient>
	</defs>
	<g
   id="g43"
   transform="translate(-33.991619,-33.997469)">
		<title
   id="title10">Page-1</title>
		<g
   id="group796-1"
   transform="translate(34,-34.0157)">
			<title
   id="title12">Tags</title>
			<g
   id="group797-2">
				<title
   id="title14">MsPortalFx.base.images-5</title>
				<g
   id="shape798-3"
   transform="translate(0,-11.0857)">
					<title
   id="title16">Sheet.798</title>
					<path
   d="M 45.08,85.77 38.94,79.55 A 1.54194,1.57072 -180 0 0 37.8,79.1 l -11.4,0.43 a 1.51248,1.54071 -180 0 0 -1.02,0.45 L 0.44,105.24 a 1.51248,1.54071 -180 0 0 0,2.19 l 16.62,16.83 a 1.5223,1.55071 -180 0 0 2.15,0 L 44.17,98.96 A 1.49283,1.5207 -180 0 0 44.61,98 l 0.92,-11.01 a 1.5092,1.53737 -180 0 0 -0.45,-1.22 z m -7.42,4.13 a 2.75978,2.81129 0 1 1 2.78,-2.81 2.76633,2.81796 0 0 1 -2.78,2.81 z"
   class="st1"
   id="path18"
   inkscape:connector-curvature="0"
   style="fill:#773adc;stroke:none;stroke-width:34;stroke-linecap:butt" />
				</g>
				<g
   id="shape799-5"
   transform="translate(34.1999,-45.13)">
					<title
   id="title21">Sheet.799</title>
					<path
   d="m 3.46,116.09 a 4.94992,5.04231 -180 1 0 4.98,5.04 4.95975,5.05232 -180 0 0 -4.98,-5.04 z m 2.73,5.59 a 2.77615,2.82796 0 1 1 -3.28,-3.31 2.74996,2.80129 0 0 1 3.28,3.31 z"
   class="st2"
   id="path23"
   inkscape:connector-curvature="0"
   style="fill:#341a6e;stroke:none;stroke-width:34;stroke-linecap:butt" />
				</g>
				<g
   id="shape800-7"
   transform="translate(5.50045)">
					<title
   id="title26">Sheet.800</title>
					<path
   d="M 45.08,85.78 38.94,79.56 A 1.52557,1.55405 -180 0 0 37.8,79.11 l -11.4,0.42 a 1.54849,1.57739 -180 0 0 -1.02,0.45 L 0.45,105.24 a 1.50593,1.53404 -180 0 0 0,2.18 l 16.62,16.84 a 1.52885,1.55738 -180 0 0 2.15,0 L 44.17,98.96 A 1.51902,1.54738 -180 0 0 44.61,98 l 0.91,-11 a 1.50266,1.5307 -180 0 0 -0.44,-1.22 z m -7.41,4.12 a 2.75978,2.81129 0 1 1 2.77,-2.81 2.7696,2.82129 0 0 1 -2.77,2.81 z"
   class="st3"
   id="path28"
   inkscape:connector-curvature="0"
   style="fill:url(#grad0-10);stroke:none;stroke-width:34;stroke-linecap:butt" />
				</g>
				<g
   id="shape801-11"
   transform="translate(39.6975,-34.0472)">
					<title
   id="title31">Sheet.801</title>
					<path
   d="m 3.47,116.09 a 4.94992,5.04231 -180 1 0 4.97,5.05 4.96302,5.05565 -180 0 0 -4.97,-5.05 z m 2.72,5.6 a 2.77615,2.82796 0 1 1 -3.27,-3.31 2.75651,2.80795 0 0 1 3.27,3.31 z"
   class="st4"
   id="path33"
   inkscape:connector-curvature="0"
   style="fill:#552f99;stroke:none;stroke-width:34;stroke-linecap:butt" />
				</g>
				<g
   id="shape802-13"
   transform="translate(35.7062,-35.5987)">
					<title
   id="title36">Sheet.802</title>
					<path
   d="m 10.18,123.24 a 2.77615,2.82796 0 1 1 -3.27,-3.31 2.75651,2.80795 0 0 1 3.27,3.31 z m -5.5,-11.09 a 2.77615,2.82796 0 1 1 -3.27,-3.31 2.74996,2.80129 0 0 1 3.27,3.31 z"
   class="st5"
   id="path38"
   inkscape:connector-curvature="0"
   style="fill:#ffffff;stroke:none;stroke-width:34;stroke-linecap:butt" />
				</g>
			</g>
		</g>
	</g>
</svg>

<?xml version="1.0" encoding="UTF-8" standalone="no"?>
<!DOCTYPE svg PUBLIC "-//W3C//DTD SVG 1.1//EN" "http://www.w3.org/Graphics/SVG/1.1/DTD/svg11.dtd">
<!-- Generated by Microsoft Visio, SVG Export Tags.svg Page-1 -->
<svg xmlns="http://www.w3.org/2000/svg" xmlns:xlink="http://www.w3.org/1999/xlink" xmlns:ev="http://www.w3.org/2001/xml-events"
		width="1.65318in" height="1.73208in" viewBox="0 0 119.029 124.71" xml:space="preserve" color-interpolation-filters="sRGB"
		class="st6">
	<style type="text/css">
	<![CDATA[
		.st1 {fill:#773adc;stroke:none;stroke-linecap:butt;stroke-width:34}
		.st2 {fill:#341a6e;stroke:none;stroke-linecap:butt;stroke-width:34}
		.st3 {fill:url(#grad0-10);stroke:none;stroke-linecap:butt;stroke-width:34}
		.st4 {fill:#552f99;stroke:none;stroke-linecap:butt;stroke-width:34}
		.st5 {fill:#ffffff;stroke:none;stroke-linecap:butt;stroke-width:34}
		.st6 {fill:none;fill-rule:evenodd;font-size:12px;overflow:visible;stroke-linecap:square;stroke-miterlimit:3}
	]]>
	</style>

	<defs id="Patterns_And_Gradients">
		<linearGradient id="grad0-10" x1="0" y1="0" x2="1" y2="0" gradientTransform="rotate(90 0.5 0.5)">
			<stop offset="0" stop-color="#c69aeb" stop-opacity="1"/>
			<stop offset="1" stop-color="#6f4bb2" stop-opacity="1"/>
		</linearGradient>
	</defs>
	<g>
		<title>Page-1</title>
		<g id="group781-1" transform="translate(34,-34.0157)">
			<title>Tags</title>
			<g id="group782-2">
				<title>MsPortalFx.base.images-5</title>
				<g id="shape783-3" transform="translate(-2.51799E-13,-11.0857)">
					<title>Sheet.783</title>
					<path d="M45.08 85.77 L38.94 79.55 A1.54194 1.57072 -180 0 0 37.8 79.1 L26.4 79.53 A1.51248 1.54071 -180 0 0
								 25.38 79.98 L0.44 105.24 A1.51248 1.54071 -180 0 0 0.44 107.43 L17.06 124.26 A1.5223 1.55071 -180
								 0 0 19.21 124.26 L44.17 98.96 A1.49283 1.5207 -180 0 0 44.61 98 L45.53 86.99 A1.5092 1.53737 -180
								 0 0 45.08 85.77 ZM37.66 89.9 A2.75978 2.81129 0 1 1 40.44 87.09 A2.76633 2.81796 0 0 1 37.66 89.9
								 Z" class="st1"/>
				</g>
				<g id="shape784-5" transform="translate(34.1999,-45.13)">
					<title>Sheet.784</title>
					<path d="M3.46 116.09 A4.94992 5.04231 -180 1 0 8.44 121.13 A4.95975 5.05232 -180 0 0 3.46 116.09 ZM6.19 121.68
								 A2.77615 2.82796 0 1 1 2.91 118.37 A2.74996 2.80129 0 0 1 6.19 121.68 Z" class="st2"/>
				</g>
				<g id="shape785-7" transform="translate(5.50045,1.42109E-14)">
					<title>Sheet.785</title>
					<path d="M45.08 85.78 L38.94 79.56 A1.52557 1.55405 -180 0 0 37.8 79.11 L26.4 79.53 A1.54849 1.57739 -180 0 0
								 25.38 79.98 L0.45 105.24 A1.50593 1.53404 -180 0 0 0.45 107.42 L17.07 124.26 A1.52885 1.55738 -180
								 0 0 19.22 124.26 L44.17 98.96 A1.51902 1.54738 -180 0 0 44.61 98 L45.52 87 A1.50266 1.5307 -180
								 0 0 45.08 85.78 ZM37.67 89.9 A2.75978 2.81129 0 1 1 40.44 87.09 A2.7696 2.82129 0 0 1 37.67 89.9
								 Z" class="st3"/>
				</g>
				<g id="shape786-11" transform="translate(39.6975,-34.0472)">
					<title>Sheet.786</title>
					<path d="M3.47 116.09 A4.94992 5.04231 -180 1 0 8.44 121.14 A4.96302 5.05565 -180 0 0 3.47 116.09 ZM6.19 121.69
								 A2.77615 2.82796 0 1 1 2.92 118.38 A2.75651 2.80795 0 0 1 6.19 121.69 Z" class="st4"/>
				</g>
				<g id="shape787-13" transform="translate(35.7062,-35.5987)">
					<title>Sheet.787</title>
					<path d="M10.18 123.24 A2.77615 2.82796 0 1 1 6.91 119.93 A2.75651 2.80795 0 0 1 10.18 123.24 ZM4.68 112.15 A2.77615
								 2.82796 0 1 1 1.41 108.84 A2.74996 2.80129 0 0 1 4.68 112.15 Z" class="st5"/>
				</g>
			</g>
		</g>
	</g>
</svg>
